Yaru++/actions/16/draw-freehand.svg

<svg xmlns="http://www.w3.org/2000/svg" viewBox="0 0 24 24">
 <defs>
  <style id="current-color-scheme" type="text/css">
   .ColorScheme-Text { color:#808080; }
  </style>
 </defs>
 <path fill="#808080" class="ColorScheme-Text" d="M 13.001953 4 L 5.6582031 11.3125 L 4.2519531 12.75 L 4.0019531 13 L 4.0019531 17 L 5.0019531 17 L 7.0019531 17 L 8.0019531 17 L 8.2519531 16.75 L 8.6269531 16.40625 L 9.3144531 15.6875 L 9.6894531 15.34375 L 16 9 L 17 8 L 13.001953 4 z M 12.408203 6 L 15 8.59375 L 10.720703 12.84375 L 8.1582031 10.25 L 12.408203 6 z M 7.4394531 10.96875 L 10.033203 13.5625 L 9.3144531 14.28125 L 6.7207031 11.6875 L 7.0019531 11.40625 L 7.4394531 10.96875 z M 6.0332031 12.375 L 8.6269531 14.96875 L 7.9082031 15.6875 L 5.3144531 13.09375 L 6.0332031 12.375 z M 17.498047 15 C 17.236387 15.0001 16.543567 15.046 15.435547 15.5625 C 15.089167 15.7241 14.80184 15.907 14.40625 16.125 C 14.19507 16.2414 13.43802 16.6193 13.15625 16.75 C 12.33058 17.1332 12.0562 17.2299 11.34375 17.5 C 10.65424 17.7615 9.9106 17.9987 9.40625 18.1875 C 7.28335 18.9823 4 19 4 19 L 4 20 C 4 20 7.32741 20.032 9.75 19.125 C 10.07135 19.0047 10.63148 18.8074 11.15625 18.625 C 11.96327 18.33064 12.83545 17.96826 13.5625 17.65625 C 13.86715 17.51485 14.573417 17.1652 14.873047 17 C 15.313257 16.7574 15.606857 16.57825 15.841797 16.46875 C 16.355167 16.16635 16.925197 15.9864 17.498047 16 C 17.453247 16.0002 17.671837 16.001 17.873047 16.09375 C 18.074257 16.17775 18.297827 16.32735 18.466797 16.46875 C 18.794117 16.80065 18.931417 17.0539 18.998047 17.5 C 18.972347 18.182 18.737407 18.39575 18.248047 18.78125 C 17.924207 18.99579 17.46827 19.034846 17 19.003906 L 17 19.972656 C 17.78372 19.974656 18.411047 19.81831 18.779297 19.625 C 19.616007 19.1478 20.027267 18.28855 19.998047 17.46875 C 19.993047 17.18085 19.920827 16.9437 19.779297 16.625 C 19.637717 16.3064 19.435267 15.9489 19.123047 15.6875 C 18.641187 15.2643 18.399387 15.0781 17.498047 15 z"/>
</svg>

<svg viewBox="0 0 24 24" xmlns="http://www.w3.org/2000/svg"><path d="m13.001953 4-7.3437499 7.3125-1.40625 1.4375-.25.25v4h1 2 1l.25-.25.375-.34375.6875-.71875.375-.34375 6.3105469-6.34375 1-1zm-.59375 2 2.591797 2.59375-4.279297 4.25-2.5624999-2.59375zm-4.9687499 4.96875 2.5937499 2.59375-.7187499.71875-2.59375-2.59375.28125-.28125zm-1.40625 1.40625 2.59375 2.59375-.71875.71875-2.59375-2.59375zm11.4648439 2.625c-.26166.0001-.95448.046-2.0625.5625-.34638.1616-.633707.3445-1.029297.5625-.21118.1164-.96823.4943-1.25.625-.82567.3832-1.10005.4799-1.8125.75-.68951.2615-1.43315.4987-1.9375.6875-2.1229.7948-5.40625.8125-5.40625.8125v1s3.32741.032 5.75-.875c.32135-.1203.88148-.3176 1.40625-.5.80702-.29436 1.6792-.65674 2.40625-.96875.30465-.1414 1.010917-.49105 1.310547-.65625.44021-.2426.73381-.42175.96875-.53125.51337-.3024 1.0834-.48235 1.65625-.46875-.0448.0002.17379.001.375.09375.20121.084.42478.2336.59375.375.32732.3319.46462.58515.53125 1.03125-.0257.682-.26064.89575-.75 1.28125-.32384.21454-.779777.253596-1.248047.222656v.96875c.78372.002 1.411047-.154346 1.779297-.347656.83671-.4772 1.24797-1.33645 1.21875-2.15625-.005-.2879-.07722-.52505-.21875-.84375-.14158-.3186-.34403-.6761-.65625-.9375-.48186-.4232-.72366-.6094-1.625-.6875z" fill="#808080"/></svg>
